X:155
T: Jim O'Connor's
S: "Treoir"
Z: B.Black
M: 6/8
L: 1/8
R: jig
K: G
GFG AGA | B2 g gdB | GAB c3 | BGE EDE |
GFG AGA | B2 g gdB | cBA Bc/d/B | AGF G3 :|
gfg efg | eag fed | gfg efg | afd d2 f |
gfe dgf | gfe edB | cBA Bc/d/B | AGF G3 :|
